app/images/icons/payment-page-icon.svg

<?xml version="1.0" encoding="UTF-8" standalone="no"?>
<svg width="76px" height="76px" viewBox="0 0 76 76" version="1.1" xmlns="http://www.w3.org/2000/svg" xmlns:xlink="http://www.w3.org/1999/xlink" xmlns:sketch="http://www.bohemiancoding.com/sketch/ns">
    <!-- Generator: Sketch 3.1 (8751) - http://www.bohemiancoding.com/sketch -->
    <title>payment-page-icon</title>
    <desc>Created with Sketch.</desc>
    <defs></defs>
    <g id="Page-1" stroke="none" stroke-width="1" fill="none" fill-rule="evenodd" sketch:type="MSPage">
        <g id="payment-page-icon" sketch:type="MSLayerGroup" fill="#1B1A19">
            <path d="M38,4.43333333 L48.8756,15.2 L38,15.2 L38,4.43333333 L38,4.43333333 Z M50.6666667,30.02 L53.2,30.02 L53.2,16.4679333 C53.2,16.34 53.1658,16.2133333 53.1024667,16.0879333 C53.0378667,15.8333333 52.9441333,15.7079333 52.8276,15.58 L37.6301333,0.38 C37.5136,0.253333333 37.3755333,0.253333333 37.221,0.126666667 C37.0677333,0.126666667 36.9030667,0 36.7333333,0 L1.26666667,0 C0.567466667,0 0,0.633333333 0,1.26793333 L0,67.1333333 C0,67.8933333 0.567466667,68.4 1.26666667,68.4 L33.2094667,68.4 L33.2094667,65.8679333 L2.53333333,65.8679333 L2.53333333,2.53333333 L35.4666667,2.53333333 L35.4666667,16.4679333 C35.4666667,17.2266667 36.0341333,17.7333333 36.7333333,17.7333333 L50.6666667,17.7333333 L50.6666667,30.02 L50.6666667,30.02 Z" id="Fill-2132" sketch:type="MSShapeGroup"></path>
            <path d="M57,73.4679333 C47.9205333,73.4679333 40.5333333,66.12 40.5333333,57 C40.5333333,48.0079333 47.9205333,40.5333333 57,40.5333333 C66.0807333,40.5333333 73.4666667,48.0079333 73.4666667,57 C73.4666667,66.12 66.0807333,73.4679333 57,73.4679333 L57,73.4679333 Z M57,38 C46.5234,38 38,46.6133333 38,57 C38,67.5133333 46.5234,76 57,76 C67.4766,76 76,67.5133333 76,57 C76,46.6133333 67.4766,38 57,38 L57,38 Z" id="Fill-2133" sketch:type="MSShapeGroup"></path>
            <path d="M64.8856333,49.8498449 L54.3723,62.6419116 L49.0282333,57.3219116 C48.5342333,56.8165116 47.7324333,56.8165116 47.2371667,57.3219116 C46.7431667,57.8298449 46.7431667,58.7165116 47.2371667,59.0952449 L54.5597667,66.4419116 L66.8464333,51.4952449 C67.2897667,50.8619116 67.2099667,50.1006449 66.6691,49.7219116 C66.1269667,49.2165116 65.3289667,49.3419116 64.8856333,49.8498449" id="Fill-2134" sketch:type="MSShapeGroup"></path>
        </g>
    </g>
</svg>

<svg width="76" height="76" viewBox="0 0 76 76" xmlns="http://www.w3.org/2000/svg">
    <desc>
        Created with Sketch.
    </desc>
    <g fill="#1B1A19">
        <path d="M38 4.433L48.876 15.2H38V4.433zM50.667 30.02H53.2V16.468c0-.128-.034-.255-.098-.38-.064-.255-.158-.38-.274-.508L37.63.38c-.116-.127-.254-.127-.41-.253-.152 0-.317-.127-.487-.127H1.267C.567 0 0 .633 0 1.268v65.865c0 .76.567 1.267 1.267 1.267H33.21v-2.532H2.532V2.533h32.934v13.935c0 .76.567 1.265 1.266 1.265h13.934V30.02z"/>
        <path d="M57 73.468c-9.08 0-16.467-7.348-16.467-16.468 0-8.992 7.388-16.467 16.467-16.467 9.08 0 16.467 7.475 16.467 16.467 0 9.12-7.386 16.468-16.467 16.468zM57 38c-10.477 0-19 8.613-19 19 0 10.513 8.523 19 19 19s19-8.487 19-19c0-10.387-8.523-19-19-19z"/>
        <path d="M64.886 49.85L54.372 62.642l-5.344-5.32c-.494-.505-1.296-.505-1.79 0-.495.508-.495 1.395 0 1.773l7.322 7.347 12.286-14.947c.444-.633.364-1.394-.177-1.773-.543-.505-1.34-.38-1.784.128"/>
    </g>
</svg>
